X: 20401
T: WHERE THE BEE SUCKS
Q: "Allegretto"
%R: march, reel
B: "Edinburgh Repository of Music" v.2 p.40 #1
F: http://digital.nls.uk/special-collections-of-printed-music/pageturner.cfm?id=87776133
Z: 2015 John Chambers <jc:trillian.mit.edu>
M: C
L: 1/8
K: C
(e3f) |\
(g2a2 B2g2) | e4 z2(ef) |\
(ge).a2 (fd).g2 | .e4 (e3^f) |\
g3B c3c | (B3d) (e3c) |\
(d3B) (c3A) | B4 z2!p!(gB) |\
.c2.c2 (ag^fe) |
("_cres."d^fga bagf) |\
(!f!egab c'bag) | ^f2z2 (g2!p!bg) |\
.g2.g2 (g2b)g | "_cres."gbg2 (ag^fe) |\
d2g2 (d'd)e^f | g2z2 (!p!ge)g2 |\
(fd)f2 (ec)(e2 |
d4) .g2(eg) |\
(fd) z.f .e2(!p!c!f!e) | d2z2 (ge).c2 |\
(af).d2 (ge).c2 | f4 e2!p!.e>.f |\
.g.g za d2(g>f) | .e4 c'2g>f |\
.e.c zd G2(c>B | c4) |]

%%sep 2 1 500
%%sep 1 1 500

